icons/square-check.svg

<svg width="24" height="24" viewBox="0 0 24 24" fill="none" xmlns="http://www.w3.org/2000/svg">
<path fill-rule="evenodd" clip-rule="evenodd" d="M3 4C3 3.44772 3.44772 3 4 3H20C20.5523 3 21 3.44772 21 4V20C21 20.5523 20.5523 21 20 21H4C3.44772 21 3 20.5523 3 20V4ZM5 5V19H19V5H5ZM17.7071 7.79289C18.0976 8.18342 18.0976 8.81658 17.7071 9.20711L11.7071 15.2071C11.3166 15.5976 10.6834 15.5976 10.2929 15.2071L7.29289 12.2071C6.90237 11.8166 6.90237 11.1834 7.29289 10.7929C7.68342 10.4024 8.31658 10.4024 8.70711 10.7929L11 13.0858L16.2929 7.79289C16.6834 7.40237 17.3166 7.40237 17.7071 7.79289Z" fill="black"/>
</svg>

<svg
  width="24"
  height="24"
  viewBox="0 0 24 24"
  xmlns="http://www.w3.org/2000/svg"
>
  <path
    fill-rule="evenodd"
    clip-rule="evenodd"
    d="M3 4a1 1 0 0 1 1-1h16a1 1 0 0 1 1 1v16a1 1 0 0 1-1 1H4a1 1 0 0 1-1-1V4zm2 1v14h14V5H5zm12.707 2.793a1 1 0 0 1 0 1.414l-6 6a1 1 0 0 1-1.414 0l-3-3a1 1 0 1 1 1.414-1.414L11 13.086l5.293-5.293a1 1 0 0 1 1.414 0z"
  />
</svg>
